X:384
T:Fandangu (CT 321)
R:Fandangu
C:Tradicional
S:Msica Tradicional Asturiana, (C) Tello & Tito. Asturies, 2001.
S:http://pagina.de/MusTradAst <telloytito@asturies.org>
N:Baile de Gaita (Fandangu), transcrito en Uviu.
A:Asturies
O:Uviu
Z:Cancioneru de Torner 321
M:3/8
L:1/8
Q:3/8=72
K:G
|d3-|d>BG-|G{B}A{c}B|{d}c{e}d{f}e|{d}c{c}B{B}A|{A}G{G}F2|{A}G3|
|:B G/B/G/B/|B/G/ F2|A F/A/F/A/|B/A/ G2|
B G/B/G/B/|B/G/ F2|A F/A/F/A/|G2 G/A/|
B A/B/c/B/|A/G/ F A/B/|c B/c/d/c/|B/A/ G G/A/|
B A/B/c/B/|A/G/ F A/B/|c d/c/B/A/|G2 d|
g2 e|f2 d|edB|c2 A|f2 d|e2 c|dcA|B2 d|
g2 e|f2 d|edB|c2 A|f2 d|e2 c|dcA|G3|
ABc|e>dB|dcA|B>AG|ABc|e>dB|dcA|G3|
ABc|e e/d/ B|d d/c/ A|c c/B/ G|ABc|e e/d/ B|d d/c/ A|G2 B/c/|
d d/d/d/d/|cAc/d/|e e/e/e/e/|d/c/ B B/c/|
d d/d/d/d/|cAB/c/|d d/c/B/A/|G2 B/c/|
d c/B/A/G/|GFA|e d/c/B/A/|AGB/c/|
d c/B/A/G/|GFA|e d/c/B/A/|G2 G/A/|
B A/B/c/B/|A/G/ F A/B/|c B/c/d/c/|B/A/ G G/A/|
B A/B/c/B/|A/G/ F A/B/|c d/c/B/A/|G3:|G d2-|d||
